X:24
T:Un Jour dans la prairie
R:Promenade
A:Normandie
O:France
M:2/4
L:1/8
Q:1/4=120
K:B
B2 FB|cd c","c|B2 FB|cd c2|B2 FB|cd c","c|B2 FB|cd c2|!
e2 cc|dd cc|B2 AB|cd c2|e2cc|dd cc| c2 cB|{B}dc B2||
